48x48/apps/utools.svg

<svg xmlns="http://www.w3.org/2000/svg" width="48" height="48" version="1.1">
 <circle style="opacity:.2" cx="24" cy="25" r="20"/>
 <circle style="fill:#17191e" cx="24" cy="24" r="20"/>
 <path style="fill:#f4f4f7;opacity:.1" d="M 24,4 A 20,20 0 0 0 4,24 20,20 0 0 0 4.0196,24.586 20,20 0 0 1 24,5 20,20 0 0 1 43.98,24.414 20,20 0 0 0 44,24 20,20 0 0 0 24,4 Z"/>
 <path style="opacity:0.2" d="m 15.193359,12.050723 c -1.086832,0.01976 -2.015988,0.454405 -2.826171,1.185547 -0.671861,0.592817 -0.790305,1.027699 0.158203,1.501953 1.600607,0.810184 3.143533,1.757947 4.74414,2.587891 1.67965,0.869466 3.260144,0.651973 4.742188,-0.494141 0.948508,-0.731142 0.988369,-1.264833 -0.197266,-1.83789 -1.462283,-0.691621 -2.8663,-1.539654 -4.289062,-2.330079 -0.731141,-0.41497 -1.502087,-0.652802 -2.332032,-0.613281 z m 16.890625,1.042969 c -0.857115,-0.06422 -1.764841,0.148333 -2.673828,0.662109 -2.529354,1.422763 -5.037511,2.904677 -7.527344,4.386719 -0.474253,0.276649 -1.284926,0.375475 -1.304687,1.007813 -0.01976,0.770663 0.790913,1.067679 1.304687,1.46289 1.422762,0.750903 2.84378,0.710349 4.1875,-0.08008 2.766482,-1.580847 5.512586,-3.239697 8.298829,-4.800781 1.047311,-0.573057 0.791454,-1.028048 0.08008,-1.640625 -0.701501,-0.592816 -1.508119,-0.933826 -2.365235,-0.998047 z m 6.234375,6.085938 c -0.197066,-0.01853 -0.454052,0.07222 -0.794921,0.287109 -1.521566,0.968269 -3.122737,1.797586 -4.664063,2.746094 -1.600607,0.968269 -2.211507,2.451098 -1.994141,4.308593 0.138324,1.185635 0.571143,1.500673 1.677735,0.769532 1.363481,-0.908986 2.786222,-1.678098 4.208984,-2.488282 0.731141,-0.414972 1.323538,-0.948775 1.71875,-1.660156 0.533536,-0.968269 0.633153,-1.975897 0.435547,-3.042969 -0.0988,-0.555767 -0.259449,-0.889045 -0.587891,-0.919921 z M 9.6484375,19.531192 c -0.3448455,0.06522 -0.4812751,0.458596 -0.5800781,1.039062 -0.3161693,1.817974 0.4749942,3.478081 2.2929686,4.525391 2.509594,1.442524 5.075885,2.825744 7.625,4.208985 0.494015,0.276648 0.989673,0.927496 1.542969,0.611328 0.6521,-0.375452 0.493222,-1.2229 0.572265,-1.875 -0.07904,-1.620367 -0.829879,-2.807462 -2.193359,-3.578125 C 16.121961,22.881986 13.297732,21.40133 10.53125,19.800723 10.138509,19.571006 9.8553446,19.492056 9.6484375,19.531192 Z m 19.5468745,5.46875 c -0.456524,0.0094 -0.909587,0.372114 -1.322265,0.566406 C 26.607502,26.443159 25.981659,27.699103 26,29.27338 c 0.01834,3.208328 0.12967,6.435804 0.111328,9.664062 0,1.215579 0.49572,1.195793 1.302734,0.876953 1.595688,-0.657608 2.567597,-2.15175 2.585938,-4.244141 0,-2.929342 -0.05554,-5.857765 -0.128906,-8.787109 -0.01834,-0.557971 0.274509,-1.335457 -0.220703,-1.654297 -0.151316,-0.09465 -0.302904,-0.13202 -0.455079,-0.128906 z m -11.46875,5.007812 c -0.546012,-0.06507 -0.782148,0.285888 -0.714843,1.228516 0.107687,1.538217 0.08789,3.096548 0.08789,4.634766 0,0.806626 0.163368,1.537575 0.576172,2.21289 0.520491,0.900422 1.273737,1.445545 2.207031,1.783204 0.771765,0.281379 1.167126,0.167271 1.113282,-0.845704 C 20.906354,37.314382 20.942514,35.5898 20.888672,33.882754 20.834832,32.081917 19.936474,30.880335 18.375,30.20502 18.123729,30.097158 17.908568,30.029444 17.726562,30.007754 Z"/>
 <path style="fill:#f4f4f7" d="M 15.193359 11.050781 C 14.106527 11.070541 13.177371 11.505186 12.367188 12.236328 C 11.695327 12.829145 11.576883 13.264027 12.525391 13.738281 C 14.125998 14.548465 15.668924 15.496228 17.269531 16.326172 C 18.949181 17.195638 20.529675 16.978145 22.011719 15.832031 C 22.960227 15.100889 23.000088 14.567198 21.814453 13.994141 C 20.35217 13.30252 18.948153 12.454487 17.525391 11.664062 C 16.79425 11.249092 16.023304 11.01126 15.193359 11.050781 z M 32.083984 12.09375 C 31.226869 12.02953 30.319143 12.242083 29.410156 12.755859 C 26.880802 14.178622 24.372645 15.660536 21.882812 17.142578 C 21.408559 17.419227 20.597886 17.518053 20.578125 18.150391 C 20.558365 18.921054 21.369038 19.21807 21.882812 19.613281 C 23.305574 20.364184 24.726592 20.32363 26.070312 19.533203 C 28.836794 17.952356 31.582898 16.293506 34.369141 14.732422 C 35.416452 14.159365 35.160595 13.704374 34.449219 13.091797 C 33.747718 12.498981 32.9411 12.157971 32.083984 12.09375 z M 38.318359 18.179688 C 38.121293 18.161158 37.864307 18.251908 37.523438 18.466797 C 36.001872 19.435066 34.400701 20.264383 32.859375 21.212891 C 31.258768 22.18116 30.647868 23.663989 30.865234 25.521484 C 31.003558 26.707119 31.436377 27.022157 32.542969 26.291016 C 33.90645 25.38203 35.329191 24.612918 36.751953 23.802734 C 37.483094 23.387762 38.075491 22.853959 38.470703 22.142578 C 39.004239 21.174309 39.103856 20.166681 38.90625 19.099609 C 38.80745 18.543842 38.646801 18.210564 38.318359 18.179688 z M 9.6484375 18.53125 C 9.303592 18.59647 9.1671624 18.989846 9.0683594 19.570312 C 8.7521901 21.388286 9.5433536 23.048393 11.361328 24.095703 C 13.870922 25.538227 16.437213 26.921447 18.986328 28.304688 C 19.480343 28.581336 19.976001 29.232184 20.529297 28.916016 C 21.181397 28.540564 21.022519 27.693116 21.101562 27.041016 C 21.022523 25.420649 20.271683 24.233554 18.908203 23.462891 C 16.121961 21.882044 13.297732 20.401388 10.53125 18.800781 C 10.138509 18.571064 9.8553446 18.492114 9.6484375 18.53125 z M 29.195312 24 C 28.738788 24.0094 28.285725 24.372114 27.873047 24.566406 C 26.607502 25.443217 25.981659 26.699161 26 28.273438 C 26.01834 31.481766 26.12967 34.709242 26.111328 37.9375 C 26.111328 39.153079 26.607048 39.133293 27.414062 38.814453 C 29.00975 38.156845 29.981659 36.662703 30 34.570312 C 30 31.64097 29.944455 28.712547 29.871094 25.783203 C 29.852754 25.225232 30.145603 24.447746 29.650391 24.128906 C 29.499075 24.034256 29.347487 23.996886 29.195312 24 z M 17.726562 29.007812 C 17.18055 28.942743 16.944414 29.2937 17.011719 30.236328 C 17.119406 31.774545 17.099609 33.332876 17.099609 34.871094 C 17.099609 35.67772 17.262977 36.408669 17.675781 37.083984 C 18.196272 37.984406 18.949518 38.529529 19.882812 38.867188 C 20.654577 39.148567 21.049938 39.034459 20.996094 38.021484 C 20.906354 36.31444 20.942514 34.589858 20.888672 32.882812 C 20.834832 31.081975 19.936474 29.880393 18.375 29.205078 C 18.123729 29.097216 17.908568 29.029502 17.726562 29.007812 z"/>
</svg>

<svg xmlns="http://www.w3.org/2000/svg" width="48" height="48"><circle style="opacity:.2" cx="24" cy="25" r="20"/><circle style="fill:#17191e" cx="24" cy="24" r="20"/><path style="fill:#f4f4f7;opacity:.1" d="M24 4A20 20 0 0 0 4 24a20 20 0 0 0 .02.586A20 20 0 0 1 24 5a20 20 0 0 1 19.98 19.414A20 20 0 0 0 44 24 20 20 0 0 0 24 4z"/><path style="opacity:.2" d="M15.193 12.05c-1.086.02-2.016.455-2.826 1.186-.672.593-.79 1.028.158 1.502 1.601.81 3.144 1.758 4.745 2.588 1.68.87 3.26.652 4.742-.494.948-.731.988-1.265-.198-1.838-1.462-.692-2.866-1.54-4.289-2.33-.73-.415-1.502-.653-2.332-.613zm16.891 1.044c-.857-.065-1.765.148-2.674.662a355.792 355.792 0 0 0-7.527 4.387c-.474.276-1.285.375-1.305 1.007-.02.771.791 1.068 1.305 1.463 1.423.751 2.844.71 4.187-.08 2.767-1.58 5.513-3.24 8.3-4.8 1.046-.574.79-1.029.08-1.641-.702-.593-1.509-.934-2.366-.998zm6.234 6.086c-.197-.019-.454.072-.795.287-1.521.968-3.122 1.797-4.664 2.746-1.6.968-2.211 2.45-1.994 4.308.139 1.186.571 1.501 1.678.77 1.363-.909 2.786-1.678 4.209-2.488.731-.415 1.323-.95 1.719-1.66.533-.969.633-1.976.435-3.043-.099-.556-.26-.89-.588-.92zm-28.67.351c-.344.065-.48.459-.58 1.04-.316 1.817.475 3.477 2.293 4.525 2.51 1.442 5.076 2.825 7.625 4.209.494.276.99.927 1.543.611.652-.375.494-1.223.573-1.875-.08-1.62-.83-2.808-2.194-3.578-2.786-1.581-5.61-3.062-8.377-4.662-.392-.23-.676-.309-.883-.27zM29.195 25c-.456.01-.91.372-1.322.566-1.265.877-1.891 2.133-1.873 3.707.018 3.209.13 6.436.111 9.664 0 1.216.496 1.196 1.303.877 1.596-.657 2.568-2.151 2.586-4.244 0-2.93-.056-5.858-.129-8.787-.018-.558.275-1.335-.22-1.654a.807.807 0 0 0-.456-.13zm-11.468 5.008c-.546-.065-.783.286-.715 1.228.107 1.538.088 3.097.088 4.635 0 .807.163 1.538.576 2.213.52.9 1.274 1.445 2.207 1.783.772.282 1.167.167 1.113-.846-.09-1.707-.053-3.431-.107-5.138-.054-1.801-.953-3.003-2.514-3.678a2.445 2.445 0 0 0-.648-.197z"/><path style="fill:#f4f4f7" d="M15.193 11.05c-1.086.02-2.016.455-2.826 1.186-.672.593-.79 1.028.158 1.502 1.601.81 3.144 1.758 4.745 2.588 1.68.87 3.26.652 4.742-.494.948-.731.988-1.265-.198-1.838-1.462-.691-2.866-1.54-4.289-2.33-.73-.415-1.502-.653-2.332-.613zm16.891 1.044c-.857-.064-1.765.148-2.674.662a355.792 355.792 0 0 0-7.527 4.387c-.474.276-1.285.375-1.305 1.007-.02.771.791 1.068 1.305 1.463 1.423.751 2.844.71 4.187-.08 2.767-1.58 5.513-3.24 8.3-4.8 1.046-.574.79-1.029.08-1.641-.702-.593-1.509-.934-2.366-.998zm6.234 6.086c-.197-.019-.454.072-.795.287-1.521.968-3.122 1.797-4.664 2.746-1.6.968-2.211 2.451-1.994 4.308.139 1.186.571 1.501 1.678.77 1.363-.909 2.786-1.678 4.209-2.488.731-.415 1.323-.949 1.719-1.66.533-.969.633-1.976.435-3.043-.099-.556-.26-.89-.588-.92zm-28.67.351c-.344.065-.48.459-.58 1.04-.316 1.817.475 3.477 2.293 4.525 2.51 1.442 5.076 2.825 7.625 4.209.494.276.99.927 1.543.611.652-.375.494-1.223.573-1.875-.08-1.62-.83-2.807-2.194-3.578-2.786-1.581-5.61-3.062-8.377-4.662-.392-.23-.676-.309-.883-.27zM29.195 24c-.456.01-.91.372-1.322.566-1.265.877-1.891 2.133-1.873 3.707.018 3.209.13 6.436.111 9.665 0 1.215.496 1.195 1.303.876 1.596-.657 2.568-2.151 2.586-4.244 0-2.929-.056-5.857-.129-8.787-.018-.558.275-1.335-.22-1.654a.807.807 0 0 0-.456-.129zm-11.468 5.008c-.546-.065-.783.286-.715 1.228.107 1.539.088 3.097.088 4.635 0 .807.163 1.538.576 2.213.52.9 1.274 1.446 2.207 1.783.772.282 1.167.167 1.113-.846-.09-1.707-.053-3.431-.107-5.138-.054-1.801-.953-3.003-2.514-3.678a2.445 2.445 0 0 0-.648-.197z"/></svg>
